X:14
T:Clyde Side Lasses. JBu.14
O:England,South Yorkshire
S:Joshua Burnett’s MS,c1835,S.Yorkshire
M:C
L:1/8
Q:1/2=96
N:Published by Nathaniel Gow in 1822
R:reel
Z:vmp.R.Greig.2010
K:F
B2|:”repeat mark added”AFcF dFcF|AFcF ABcB|AFcF dFcF|BABc BcdB:|
|:fgag f2cf|gfga baga|fgag fcAc|BAGA BcdB:|

